assets/Black cat/Flat/black_cat_flat.svg

<svg width="32" height="32" viewBox="0 0 32 32" fill="none" xmlns="http://www.w3.org/2000/svg">
<path d="M14.9 30.001H17.03C17.27 30.001 17.45 29.771 17.39 29.551L15.5 21.601H12.5L14.41 29.621C14.47 29.841 14.67 30.001 14.9 30.001Z" fill="#533566"/>
<path d="M20.78 30.001H18.65C18.41 30.001 18.23 29.771 18.29 29.551L20.18 21.601H23.18L21.27 29.621C21.21 29.841 21.01 30.001 20.78 30.001Z" fill="#533566"/>
<path d="M21.41 3.18094C21.94 3.06094 22.5 2.99094 23.07 3.00094C26.85 3.04094 29.95 6.12095 30 9.90095C30.0274 12.0415 29.0957 13.9662 27.607 15.2699C27.8613 15.9657 28 16.7171 28 17.501V22.041C28 22.671 27.87 23.301 27.61 23.881L25.09 29.771C25.04 29.911 24.9 30.001 24.75 30.001H22.57C22.3 30.001 22.12 29.721 22.24 29.481L23.54 26.451C23.66 26.181 23.6 25.871 23.39 25.661L20.98 23.251C20.82 23.091 20.6 23.001 20.37 23.001H13.01V29.621C13.01 29.831 12.84 30.001 12.63 30.001H10.38C10.17 30.001 10 29.831 10 29.631V22.981C7.76 22.761 6.02 20.881 6.02 18.591V17.001C3.8 17.001 2 15.201 2 12.981V12.761C2 12.341 2.34 12.001 2.76 12.001C3.01 12.001 3.23 11.821 3.28 11.571C3.66 9.62099 5.13 7.73099 7 7.30099V4.59099C7 4.21099 7.47 4.04099 7.72 4.32099L11.77 8.83099C12.54 9.70099 13.01 10.841 13.01 12.091V13.421C13.01 13.871 13.48 14.171 13.89 13.971L18.66 11.651C19.54 11.221 20.52 11.001 21.5 11.001C23.5641 11.001 25.4034 11.963 26.5941 13.4631C27.4065 12.6189 27.9267 11.4918 27.99 10.2509C28.14 7.38095 25.84 5.00094 23 5.00094C22.62 5.00094 22.24 5.04095 21.88 5.13094C21.47 5.22095 21.05 5.05095 20.82 4.70095C20.82 4.69595 20.8175 4.69345 20.815 4.69095C20.8125 4.68844 20.81 4.68594 20.81 4.68094C20.43 4.11094 20.74 3.33094 21.41 3.18094Z" fill="#635994"/>
<path d="M6 11.5714C6 11.2514 6.22 11 6.5 11C6.78 11 7 11.2629 7 11.5714V12.4286C7 12.7486 6.78 13 6.5 13C6.22 13 6 12.7486 6 12.4286V11.5714Z" fill="#212121"/>
<path d="M3.44 12.001C3.68 12.001 3.81 12.271 3.67 12.461L2.25 14.371C2.09 13.941 2 13.471 2 12.981V12.761C2 12.341 2.34 12.001 2.76 12.001H3.44Z" fill="#212121"/>
</svg>

<svg xmlns="http://www.w3.org/2000/svg" width="32" height="32" fill="none"><path fill="#533566" d="M14.9 30.001h2.13c.24 0 .42-.23.36-.45l-1.89-7.95h-3l1.91 8.02c.06.22.26.38.49.38ZM20.78 30.001h-2.13c-.24 0-.42-.23-.36-.45l1.89-7.95h3l-1.91 8.02c-.06.22-.26.38-.49.38Z"/><path fill="#635994" d="M21.41 3.18c.53-.12 1.09-.19 1.66-.18 3.78.04 6.88 3.12 6.93 6.9a6.996 6.996 0 0 1-2.393 5.37c.254.696.393 1.447.393 2.231v4.54c0 .63-.13 1.26-.39 1.84l-2.52 5.89c-.05.14-.19.23-.34.23h-2.18c-.27 0-.45-.28-.33-.52l1.3-3.03c.12-.27.06-.58-.15-.79l-2.41-2.41a.862.862 0 0 0-.61-.25h-7.36v6.62c0 .21-.17.38-.38.38h-2.25c-.21 0-.38-.17-.38-.37v-6.65a4.41 4.41 0 0 1-3.98-4.39v-1.59A4.02 4.02 0 0 1 2 12.981v-.22c0-.42.34-.76.76-.76.25 0 .47-.18.52-.43.38-1.95 1.85-3.84 3.72-4.27v-2.71c0-.38.47-.55.72-.27l4.05 4.51c.77.87 1.24 2.01 1.24 3.26v1.33c0 .45.47.75.88.55l4.77-2.32c.88-.43 1.86-.65 2.84-.65 2.064 0 3.903.962 5.094 2.462a4.996 4.996 0 0 0 1.396-3.212C28.14 7.38 25.84 5 23 5c-.38 0-.76.04-1.12.13-.41.09-.83-.08-1.06-.43 0-.005-.003-.008-.005-.01-.003-.003-.005-.005-.005-.01a.981.981 0 0 1 .6-1.5Z"/><path fill="#212121" d="M6 11.571c0-.32.22-.571.5-.571s.5.263.5.571v.858c0 .32-.22.571-.5.571s-.5-.251-.5-.571v-.858ZM3.44 12.001c.24 0 .37.27.23.46l-1.42 1.91c-.16-.43-.25-.9-.25-1.39v-.22c0-.42.34-.76.76-.76h.68Z"/></svg>
